img/approved.svg

<svg width="24" height="25" viewBox="0 0 24 25" fill="none" xmlns="http://www.w3.org/2000/svg">
<circle cx="12" cy="12.5" r="12" fill="#27AE60"/>
<path d="M9.68493 17.7C9.44493 17.7 9.22491 17.62 9.04491 17.44L5.06493 13.46C4.70493 13.1 4.70493 12.54 5.06493 12.18C5.42493 11.82 5.98491 11.82 6.34491 12.18L9.70492 15.52L17.6849 7.55998C18.0449 7.19998 18.6049 7.19998 18.9649 7.55998C19.3249 7.91998 19.3249 8.47998 18.9649 8.83998L10.3449 17.44C10.1449 17.62 9.92493 17.7 9.68493 17.7Z" fill="white"/>
</svg>

<svg xmlns="http://www.w3.org/2000/svg" width="24" height="25" fill="none"  xmlns:v="https://vecta.io/nano"><circle cx="12" cy="12.5" r="12" fill="#27ae60"/><path d="M9.685 17.7c-.24 0-.46-.08-.64-.26l-3.98-3.98c-.36-.36-.36-.92 0-1.28s.92-.36 1.28 0l3.36 3.34 7.98-7.96c.36-.36.92-.36 1.28 0s.36.92 0 1.28l-8.62 8.6c-.2.18-.42.26-.66.26z" fill="#fff"/></svg>
